svgs/light/map.svg

<svg xmlns="http://www.w3.org/2000/svg" viewBox="0 0 576 512"><!--! Font Awesome Pro 6.1.1 by @fontawesome - https://fontawesome.com License - https://fontawesome.com/license (Commercial License) Copyright 2022 Fonticons, Inc. --><path d="M170.1 33.14C173.4 31.83 176.1 31.64 180.4 32.62L399.1 95.11L543.1 37.53C558.9 31.23 576 42.84 576 59.82V394.6C576 404.4 570 413.2 560.9 416.9L405.9 478.9C402.6 480.2 399 480.4 395.6 479.4L176.9 416.9L32.91 474.5C17.15 480.8 0 469.2 0 452.2V117.4C0 107.6 5.975 98.78 15.09 95.13L170.1 33.14zM32 440.4L160 389.2V71.63L32 122.8V440.4zM384 124.1L192 69.21V387.9L384 442.8V124.1zM416 440.4L544 389.2V71.63L416 122.8V440.4z"/></svg>

<svg xmlns="http://www.w3.org/2000/svg" viewBox="0 0 576 512"><!--! Font Awesome Pro 6.4.2 by @fontawesome - https://fontawesome.com License - https://fontawesome.com/license (Commercial License) Copyright 2023 Fonticons, Inc. --><path d="M170.1 33.1c3.3-1.3 6.9-1.5 10.3-.5L399.1 95.1l144-57.6c15.8-6.3 32.9 5.3 32.9 22.3V394.6c0 9.8-6 18.6-15.1 22.3l-155 62c-3.3 1.3-6.9 1.5-10.3 .5L176.9 416.9l-144 57.6C17.1 480.8 0 469.2 0 452.2V117.4c0-9.8 6-18.6 15.1-22.3l155-62zM32 122.8V440.4l128-51.2V71.6L32 122.8zm352 320V124.1L192 69.2V387.9l192 54.9zm32-2.4l128-51.2V71.6L416 122.8V440.4z"/></svg>
